X:1
T:Redeemed, How I Love to Proclaim It!
T:William James Kirkpatrick
T:Redeemed, How I Love to Proclaim It!
T:Public Domain
T:Public Domain
C:William James Kirkpatrick
Z:Public Domain
%%score 1 ( 2 3 )
L:1/8
M:6/8
K:Ab
V:1 treble 
V:2 bass 
V:3 bass 
V:1
 [CE] | [CE][CE][CE] [CE][DF][DG] | [CA]3 [CE]2 [EA] | [EB][EB][EB] [EB][EA][EB] | %4
w: 1.~Re-|deemed, how I love to pro-|claim it! Re-|deemed by the blood of the|
w: 2.~Re-|deemed, and so hap- py in|Je- sus, No|lang- uage my rap- ture can|
w: 3.~I|think of my bless- èd Re-|deem- er, I|think of Him all the day|
w: 4.~I|know I shall see in His|beau- ty The|King in whose law I de-|
w: 5.~I|know there’s a crown that is|wait- ing, In|yon- der bright man- sion for|
 [Ec]3- [Ec]2 [CE] | [CE][CE][CE] [CE][DF][DG] | [CA]3 [CE]2 [CA] | [DB][DB][DB] [DB][Ec][DB] | %8
w: Lamb; * Re-|deemed through His in- fin- ite|mer- cy, His|child and for- ev- er I|
w: tell; * I|know that the light of His|pre- sence With|me doth con- tin- ual- ly|
w: long: * I|sing, for I can- not be|si- lent; His|love is the theme of my|
w: light; * Who|lov- ing- ly guard- eth my|foot- steps, And|giv- eth me songs in the|
w: me, * And|soon, with the spir- its made|per- fect, At|home with the Lord I shall|
 [CA]3- [CA]2 ||"^Refrain" [CA] | [Fd]3- [Fd]2 [Fd] | [Ec]3- [Ec]2 [CA] | %12
w: am. *||||
w: dwell. *||||
w: song. *|Re-|deemed, * re-|deemed, * Re-|
w: night. *||||
w: be. *||||
 [EB][EB][EB] [EB][EA][EB] | [Ec]3- [Ec]2 [CE] | ([DF]3 [Fd]2) [DF] | ([CE]3 [Ec]2) [CA] | %16
w: ||||
w: ||||
w: deemed by the blood of the|Lamb; * Re-|deemed, * re-|deemed, * His|
w: ||||
w: ||||
 [DB][DB][DB] [DB][Ec][DB] | [CA]3- [CA]2 |] %18
w: ||
w: ||
w: child and for- ev- er I|am. *|
w: ||
w: ||
V:2
 [A,,A,] | [A,,A,][A,,A,][A,,A,] [A,,A,][A,,A,][A,,E,] | [A,,E,]3 [A,,A,]2 [C,A,] | %3
 [E,G,][E,G,][E,G,] [E,G,][E,F,][E,G,] | [A,,A,]3- [A,,A,]2 [A,,A,] | %5
 [A,,A,][A,,A,][A,,A,] [A,,A,][A,,A,][A,,E,] | [A,,E,]3 [A,,A,]2 [A,,A,] | %7
 [E,G,][E,G,][E,G,] [E,G,][E,A,][E,G,] | [A,,E,A,]3- [A,,E,A,]2 || A, | %10
 ([D,A,]2 [D,A,] [D,A,]2) [D,A,] | ([A,,A,]2 [A,,A,] [A,,A,]2) [A,,A,] | %12
 [E,G,][E,G,][E,G,] [E,G,][E,F,][E,G,] | [A,,A,]3- [A,,A,]2 [A,,A,] | %14
 [D,A,]2 ([D,A,] [D,A,]2) [D,A,] | [A,,A,]2 ([A,,A,] [A,,A,]2) [A,,A,] | %16
 [E,G,][E,G,][E,G,] [E,G,][E,A,][E,G,] | [A,,E,]3- [A,,E,]2 |] %18
V:3
 x | x6 | x6 | x6 | x6 | x6 | x6 | x6 | x5 || A, | x6 | x6 | x6 | x6 | x6 | x6 | x6 | x5 |] %18

